japan-cool.svg

<svg height="62" viewBox="0 0 72 62" width="72" xmlns="http://www.w3.org/2000/svg"><path d="m72 54.028c0 4.418-3.582 8-8 8h-56c-4.418 0-8-3.582-8-8v-36c0-4.418 3.582-8 8-8h56c4.418 0 8 3.582 8 8z" fill="#eee"/><path d="m50 36.028c0 7.732-6.268 14-14 14s-14-6.268-14-14 6.268-14 14-14 14 6.268 14 14z" fill="#ed1b2f"/><path d="m72 20.054c0-2.176-.387-4.263-1.098-6.194-.485 5.689-3.518 8.611-6.687 7.25-2.969-1.275-.968-6.246-.82-8.618.249-4.021-.013-8.623-7.317-12.45 3.035 5.806.352 9.413-2.463 9.633-3.122.243-5.982-2.684-4.926-7.434-3.418 2.519-3.518 6.758-2.463 9.5 1.1 2.859-.044 5.234-2.727 5.498-2.998.296-4.663-3.21-3.127-8.796-2.659 3.13-4.263 7.183-4.263 11.611 0 9.912 8.034 17.946 17.945 17.946 9.912 0 17.946-8.034 17.946-17.946z" fill="#f4900c"/><path d="m65.027 25.332c.156 3.255-2.704 4.531-4.243 3.915-2.223-.89-1.627-2.419-2.199-5.585-.572-3.167-2.771-5.366-6.025-6.334 2.375 6.685-1.317 9.149-3.252 9.589-1.976.45-3.961-.001-4.188-4.23-2.306 2.295-3.733 5.47-3.733 8.979 0 .389.024.771.058 1.151 3.241 3.203 7.692 5.183 12.609 5.183 4.918 0 9.369-1.98 12.61-5.183.034-.38.058-.762.058-1.151 0-2.308-.617-4.471-1.695-6.334z" fill="#ffcc4d"/></svg>

<svg xmlns="http://www.w3.org/2000/svg" width="72" height="62" viewBox="0 0 72 62"><path fill="#eee" d="M72 54.028 C72 58.446 68.418 62.028 64 62.028 L8 62.028 C3.582 62.028 -0 58.446 -0 54.028 L-0 18.028 C-0 13.61 3.582 10.028 8 10.028 L64 10.028 C68.418 10.028 72 13.61 72 18.028 Z"/><path fill="#ed1b2f" d="M50 36.028 C50 43.76 43.732 50.028 36 50.028 28.268 50.028 22 43.76 22 36.028 22 28.296 28.268 22.028 36 22.028 43.732 22.028 50 28.296 50 36.028 Z"/><g><path fill="#f4900c" d="M72 20.054 C72 17.878 71.613 15.791 70.902 13.86 70.417 19.549 67.384 22.471 64.215 21.11 61.246 19.835 63.247 14.864 63.395 12.492 63.644 8.471 63.382 3.869 56.078 0.042 59.113 5.848 56.43 9.455 53.615 9.675 50.493 9.918 47.633 6.991 48.689 2.241 45.271 4.76 45.171 8.999 46.226 11.741 47.326 14.6 46.182 16.975 43.499 17.239 40.501 17.535 38.836 14.029 40.372 8.443 37.713 11.573 36.109 15.626 36.109 20.054 36.109 29.966 44.143 38 54.054 38 63.966 38 72 29.966 72 20.054 Z"/><path fill="#ffcc4d" d="M65.027 25.332 C65.183 28.587 62.323 29.863 60.784 29.247 58.561 28.357 59.157 26.828 58.585 23.662 58.013 20.495 55.814 18.296 52.56 17.328 54.935 24.013 51.243 26.477 49.308 26.917 47.332 27.367 45.347 26.916 45.12 22.687 42.814 24.982 41.387 28.157 41.387 31.666 41.387 32.055 41.411 32.437 41.445 32.817 44.686 36.02 49.137 38 54.054 38 58.972 38 63.423 36.02 66.664 32.817 66.698 32.437 66.722 32.055 66.722 31.666 66.722 29.358 66.105 27.195 65.027 25.332 Z"/></g></svg>
